X:1
T:Hallelujah! Jesus Saves Me
T:Hallelujah! Jesus Saves Me
T:C. C. Greenwood
T:James Benjamin Kenyon, 1906
T:Public Domain Courtesy of the Cyber Hymnal™
T:Public Domain Courtesy of the Cyber Hymnal™
C:C. C. Greenwood
Z:Public Domain
Z:Courtesy of the Cyber Hymnal™
%%score 1 ( 2 3 )
L:1/8
Q:1/4=102
M:4/4
K:C
V:1 treble 
V:2 bass 
V:3 bass 
V:1
 [CE]>[DF] | [EG]>[EG] [^D^F]>[DF] [EG]2 [EG]>[Ec] | [Fc]>[FB] [FB]>[FB] [FB]2 [B,D]>[CE] | %3
w: 1.~Long mine|eyes were drowned in tears, And my|soul was filled with fears, And I|
w: 2.~Now I|doubt and fear no more, All my|heart with bliss runs o’er, And I|
w: 3.~O how|pre- cious is His grace! O to|come to that fair place Where our|
w: 4.~Will you|join us, bro- ther dear, While His|voice of love and cheer Now is|
 [DF]>[EG] [GB]>[FA] [EG]>[EG] [DF]>[DF] | [CE]6 [CE]>[DF] | %5
w: heed- ed not the swift- ly pass- ing|years; For thro’|
w: can but love Him, praise Him and a-|dore; Skies a-|
w: souls may drink the light of His dear|face! There be-|
w: call- ing you— O hast- en to His|side; Ev- ery|
 [EG]>[EG] [^D^F]>[DF] [EG]2 [EG]>[Ec] | [Fc]>[FB] [FB]>[FB] [FB]2 [B,D]>[CE] | %7
w: many a wear- y day, O’er a|long and des- ert way From the|
w: bove me ne- ver lower, Bright is|ev- ery fleet- ing hour, And I|
w: fore His shin- ing seat All his|saint- ed ones shall meet, Cast- ing|
w: day you wait is lost, Sad will|be the fear- ful cost, If you|
 [DF]>[EG] [GB]>[FA] [EG]>[EG] [EG]>[FB] | [Ec]6 ||"^Refrain" [EG]>[EG] | [Ec]4 [EG]2 [Ec]>[Gc] | %11
w: fold of Christ, my Shep- herd, I did|stray.|||
w: sing the day of Je- sus’ might- y|power.|Hal- le-|lu- jah! Je- sus|
w: down their crowns be- fore His pierc- èd|feet.|||
w: blind- ly spurn at last the Cru- ci-|fied.|||
 [Ac]4 [FA]2 [FA]>[FA] | [EG]>[EG] [EG]>[EG] [Gc]>[Gc] [Gd]>[Ge] | [Gd]6 [Ec]>[Fd] | %14
w: |||
w: saves me, And my|head is sweet- ly pil- lowed on His|breast; Hal- le-|
w: |||
w: |||
 [Ge]4 [Ec]2 [Gf]>[Ge] | [Fd]4 [FA]2 [FA]>[FA] | [EG]>[EG] [EG]>[EG] [FB]>[FB] [FA]>[FB] | [Ec]6 |] %18
w: ||||
w: lu- jah, hal- le-|lu- jah! His she-|ki- nah co- vers me and I am|blest.|
w: ||||
w: ||||
V:2
 [C,G,]>[C,G,] | [C,C]>[C,C] [C,C]>[C,C] [C,C]2 [C,C]>[C,G,] | %2
w: ~ ~|~ ~ ~ ~ ~ ~ ~|
 [D,G,]>[D,G,] [D,G,]>[D,G,] [D,G,]2 [D,G,]>[D,G,] | %3
w: ~ ~ ~ ~ ~ ~ ~|
 [G,,G,]>[G,,G,] [G,,G,D]>[G,,G,C] [G,,G,B,]>[G,,G,] [G,,G,]>[G,,G,] | [C,G,]6 [C,G,]>[C,G,] | %5
w: ~ ~ ~ ~ ~ ~ ~ ~|~ ~ ~|
 [C,C]>[C,C] [C,C]>[C,C] [C,C]2 [C,C]>[C,G,] | [D,G,]>[D,G,] [D,G,]>[D,G,] [D,G,]2 [D,G,]>[D,G,] | %7
w: ~ ~ ~ ~ ~ ~ ~|~ ~ ~ ~ ~ ~ ~|
 [G,,G,]>[G,,G,] [G,,G,D]>[G,,G,C] [G,,G,B,]>[G,,G,] [G,,G,]>[G,,G,] | [C,G,]6 || [C,E]>[C,E] | %10
w: ~ ~ ~ ~ ~ ~ ~ ~|~|Hal- le-|
 [C,G,]>[C,G,] [C,G,]>[C,G,] [C,C]>[C,C] [C,G,]>[E,C] | %11
w: lu- jah, hal- le- lu- jah! Je- sus|
 [F,C]>[F,C] [F,C]>[F,C] [F,C]>[F,C] [F,C]>[F,C] | %12
w: saves me, Je- sus saves me. ~ ~|
 [C,C]>[C,C] [C,C]>[C,C] [E,C]>[E,C] [D,B,]>[C,C] | B,6 [E,C]>[D,B,] | %14
w: ~ ~ ~ ~ ~ ~ ~ ~|~ Hal- le-|
 [C,C]>[C,C] [C,C]>[C,C] [C,G,]>[C,G,] [D,B,]>[E,C] | [F,A,]4 [F,C]2 [F,C]>[F,C] | %16
w: lu- jah, hal- le- lu- jah! Je- sus|saves me, * *|
 [G,C]>[G,C] [G,C]>[G,C] [G,D]>[G,D] [G,D]>[G,D] | [C,C]6 |] %18
w: ||
V:3
 x2 | x8 | x8 | x8 | x8 | x8 | x8 | x8 | x6 || x2 | x8 | x8 | x8 | G,2 G,>A, G,>F, x2 | x8 | x8 | %16
 x8 | x6 |] %18

